X:1
M:12/8     %Meter
L:1/8     %
K:G
B2 G B2 G B A G F2 D |E2 C G2 F E2 C C2 A |A2 B c2 B A2 G F2 E |D2 D D E F G3 G2 G |
B2 d d2 c B A G F2 D |E2 C G2 F E2 C C3 |A2 B c2 B A2 G F2 E |D2 D D E F G3 G3 |:
A3 (4:3AGAB c3 E3 |D2 D D2 D E2 F G2 E |A3 (4:3AGAB c3 E3 |D2 A G G E D6 :|